X:1
T:He Rolls the Stone Away
T:William Howe Ruebush, 1909
T:He Rolls the Stone Away
T:Public Domain
T:Public Domain
T:Public Domain
C:William Howe Ruebush, 1909
Z:Public Domain
%%score ( 1 2 ) ( 3 4 )
L:1/8
M:4/4
K:Eb
V:1 treble 
V:2 treble 
V:3 bass 
V:4 bass 
V:1
 [B,E] | [EG][EG][EG][FA] [GB][GB][EG][FA] | [Ac]2 [Ae]2 [GB]3 [EG] | %3
w: 1.~Some|days are dark and drear- y, filled with|pain and care, My|
w: 2.~In|days of pain and sor- row Sa- tan|tries his art, With|
w: 3.~And|when the sha- dows length- en and I|near the vale, And|
 [EG][DF][DF][EG] [FA][FA][EG][DF] | [EG]2 [Ec]2 [EB]3 E | [EG][EG][EG][FA] [GB][GB][EG][GB] | %6
w: doubt- ing heart oft quest- ions why are|not all fair; Then|with blest as- sur- ance as I hear|
w: earth’s de- lu- sive so- lace for an|ach- ing heart; But|with- in my soul a lov- ing voice|
w: when the king of ter- rors seem- eth|to pre- vail; I|to hear my pi- lot in His sweet|
 [Ac]2 [Ae]2 [GB]3 [EG] | [EG][DF][DF][EG] [DA][DA][DG][DF] | (EF)(GF) [B,E]3 ||"^Refrain" [GB] | %10
w: God say: “Fear not,”|and from my spir- it rolls the stone|a- * way. * *||
w: doth say: “Fear not,”|and from my spir- it rolls the stone|a- * way. * He|stone|
w: voice say: “Fear not,”|and from my spir- it rolls the stone|a- * way. * *||
 [Ae][Ae][Ae][Ae] [Ae]3 [Ac] | [Ac][GB][GB][^F=A] [GB]3 [EG] | [EG][DF][DF][EG] [FA][FA][EG][EF] | %13
w: |||
w: a- way, He rolls the stone|a- way, My lov- ing, heav’n-|ly Fa- ther rolls the stone a- way;|
w: |||
 (GA)(Bc) [EB]3 [GB] | [Ae][Ae][Ae][Ae] [Ae]3 [Ac] | [Ac][GB][GB][^F=A] [GB]3 [EG] | %16
w: |||
w: He * rolls * the stone|He rolls the stone a- way,|My lov- ing, heav’n- ly Fa-|
w: |||
 [EG][DF][DF][EG] [FA][FA][DG][B,F] | (EF)(GF) [B,E]3 |] %18
w: ||
w: ther rolls the stone a- way; * *||
w: ||
V:2
 x | x8 | x8 | x8 | x7 E | x8 | x8 | x8 | E2 B,2 x3 || x | x8 | x8 | x8 | E2 E2 x4 | x8 | x8 | x8 | %17
w: ||||comes|||||||||||||
w: ||||deep||||rolls the|||||a- way,||||
w: ||||trust|||||||||||||
 B,2 B,2 x3 |] %18
w: |
w: |
w: |
V:3
 [E,G,] | [E,B,][E,B,][E,B,][E,B,] [E,E][E,E][E,B,][E,E] | [A,E]2 [A,C]2 [E,E]3 [E,B,] | %3
 [B,,B,][B,,B,][B,,B,][B,,B,] [B,,B,][B,,B,][B,,B,][B,,B,] | [E,B,]2 [E,A,]2 [E,G,]3 [E,B,] | %5
 [E,B,][E,B,][E,B,][E,B,] [E,E][E,E][E,B,][E,E] | [A,E]2 [A,C]2 [E,E]3 [E,B,] | %7
 [B,,B,][B,,B,][B,,B,][B,,B,] [B,,B,][B,,B,][B,,A,][B,,A,] | (G,A,)(B,A,) [E,G,]3 || [E,B,] | %10
 [A,,C][A,,C][A,,C][A,,C] (A,,B,,C,)[D,E] | [E,E][E,E][E,D][E,C] (E,F,G,)[A,E] | %12
 B,B,B,B, [B,D][B,,D][C,B,][D,B,] | (B,A,)(G,A,) [E,G,]3 [E,B,] | %14
 [A,,C][B,,C][C,C][B,,C] (A,,B,,C,)[D,E] | [E,E][E,E][E,D][E,C] (E,F,G,)[A,B,] | %16
 B,B,B,B, [B,,B,][B,,B,][C,B,][D,A,] | (G,A,)(B,A,) [E,G,]3 |] %18
V:4
 x | x8 | x8 | x8 | x8 | x8 | x8 | x8 | E,2 E,2 x3 || x | x4 C3 x | x4 B,3 x | B,B,B,B, x4 | %13
 E,2 E,2 x4 | x4 C3 x | x4 B,3 x | B,B,B,B, x4 | E,2 E,2 x3 |] %18

